app/assets/images/icons/active/report-flag.svg

<svg width="32" height="232" viewBox="0 0 32 232" xmlns="http://www.w3.org/2000/svg"><title>report-flag</title><g fill="none"><path d="M28.258 128.676c-16.479 6.715-9.804-11.359-22.585-1.843l-2.673.974 5.295 21.193h2.916l-2.594-10.381c11.403-9.73 6.786 10.606 20.275-9.347.313-.465-.106-.813-.635-.596" fill="#206FAC"/><path d="M28.258 88.676c-16.479 6.715-9.804-11.359-22.585-1.843l-2.673.974 5.295 21.193h2.916l-2.594-10.381c11.403-9.73 6.786 10.606 20.275-9.347.313-.465-.106-.813-.635-.596" fill="#fff"/><path d="M28.258 48.676c-16.479 6.715-9.804-11.359-22.585-1.843l-2.673.974 5.295 21.193h2.916l-2.594-10.381c11.403-9.73 6.786 10.606 20.275-9.347.313-.465-.106-.813-.635-.596" fill="#67737B"/><path d="M28.258 8.676c-16.479 6.715-9.804-11.359-22.585-1.843l-2.673.974 5.295 21.193h2.916l-2.594-10.381c11.403-9.73 6.786 10.606 20.275-9.347.313-.465-.106-.813-.635-.596" fill="#3A434E"/></g></svg>

<svg width="32" height="232" viewBox="0 0 32 232" xmlns="http://www.w3.org/2000/svg"><title>report-flag</title><g fill="none"><path d="M28.258 128.676c-16.48 6.715-9.804-11.36-22.585-1.843L3 127.807 8.295 149h2.916L8.62 138.62c11.403-9.73 6.786 10.605 20.275-9.348.313-.465-.106-.813-.635-.596" fill="#206FAC"/><path d="M28.258 88.676c-16.48 6.715-9.804-11.36-22.585-1.843L3 87.807 8.295 109h2.916L8.62 98.62c11.403-9.73 6.786 10.605 20.275-9.348.313-.465-.106-.813-.635-.596" fill="#fff"/><path d="M28.258 48.676c-16.48 6.715-9.804-11.36-22.585-1.843L3 47.807 8.295 69h2.916L8.62 58.62c11.403-9.73 6.786 10.605 20.275-9.348.313-.465-.106-.813-.635-.596" fill="#67737B"/><path d="M28.258 8.676c-16.48 6.715-9.804-11.36-22.585-1.843L3 7.807 8.295 29h2.916L8.62 18.62c11.402-9.73 6.785 10.604 20.274-9.35.313-.465-.106-.813-.635-.596" fill="#3A434E"/></g></svg>
